!!!COM: Scriabin, Alexander
!!!OTL@@FR: Mazurka en fa dièse mineur
!!!OTL@@EN: Mazurka in F# Minor
!!!OPR@@FR: 10 Mazurkas
!!!OPR@@EN: 10 Mazurkas
!!!OPS: 3
!!!ONM: 2
!!!OMD: Allegretto non tanto
!!!ODT: 1888–1889
!!!AGN: Mazurka
**kern	**kern	**dynam
*staff2	*staff1	*staff1/2
*Ipiano	*Ipiano	*
*clefF4	*clefG2	*
*k[f#c#g#]	*k[f#c#g#]	*
*f#:	*f#:	*
*M3/4	*M3/4	*
=1	=1	=1
*^	*^	*
8.C#L	4r	[2.c#	8c#L	.
.	.	.	8f#	.
16DJk	.	.	.	.
*	*	*	*^	*
4C#	4B	.	4e#\X	8g#	.
.	.	.	.	8f##X	.
*v	*v	*	*	*	*
4C# 4B	.	4e#\	8g#	.
.	.	.	8aJ	.
*	*	*v	*v	*
=2	=2	=2	=2
4r	2.c#]	8.f#XL	.
.	.	16g#Jk	.
*	*	*^	*
4C# 4A	.	4f#\	8aL	.
.	.	.	8bJ	.
4C# 4A	.	4f#\	4cc#	.
*	*	*v	*v	*
=3	=3	=3	=3
8BBL	4r	[4dd	.
8FnJ 8d	.	.	.
4A 4a	4r	8ddL]	.
.	.	8cc#	.
4E 4B	4d 4e 4g#	8dd	.
.	.	8eeJ	.
=4	=4	=4	=4
*^	*	*	*
2.AA	4D#X	2.c#	8cc#L	.
.	.	.	8bJ	.
.	4E	.	2a	.
.	4e	.	.	.
*v	*v	*	*	*
=5	=5	=5	=5
8.DnL	2B 2f#	[4g#	.
16GG#Jk	.	.	.
4D	.	8g#L]	.
.	.	8f##X	.
4C#	4B 4e#X	8g#	.
.	.	8aJ	.
=6	=6	=6	=6
4BB#X	[4A	8.f#XL	.
.	.	16g#Jk	.
4C#	4A] 4f#	8aL	.
.	.	8bnJ	.
4r	4r	4cc#	.
!!LO:LB:g=original
=7	=7	=7	=7
4r	4r	8bL	.
.	.	8aJ	.
4C# 4B	4e#X	4g#	.
4C# 4B	4e#	8aL	.
.	.	8g#J	.
=8	=8	=8	=8
4FF#	4f#	2.f#	.
4C# 4A	4c#	.	.
4C# 4A	4c#	.	.
=9	=9	=9	=9
*^	*	*	*
8.C#L	4r	[2.c#	8c#L	pp
.	.	.	8f#	.
16DJk	.	.	.	.
*	*	*	*^	*
4C#	4B	.	4e#\X	8g#	.
.	.	.	.	8f##X	.
*v	*v	*	*	*	*
4C# 4B	.	4e#\	8g#	.
.	.	.	8aJ	.
*	*	*v	*v	*
=10	=10	=10	=10
4r	2.c#]	8.f#XL	.
.	.	16g#Jk	.
*	*	*^	*
4C# 4A	.	4f#\	8aL	.
.	.	.	8bJ	.
4C# 4A	.	4f#\	4cc#	.
*	*	*v	*v	*
=11	=11	=11	=11
8BBL	4r	[4dd	.
8FnJ 8d	.	.	.
4A 4a	4r	8ddL]	.
.	.	8cc#	.
4E 4B	4d 4e 4g#	8dd	.
.	.	8eeJ	.
=12	=12	=12	=12
*^	*	*	*
2.AA	4D#X	2.c#	8cc#L	.
.	.	.	8bJ	.
.	4E	.	2a	.
.	4e	.	.	.
*v	*v	*	*	*
=13	=13	=13	=13
8.DnL	2B 2f#	[4g#	.
16GG#Jk	.	.	.
4D	.	8g#L]	.
.	.	8f##X	.
4C#	4B 4e#X	8g#	.
.	.	8aJ	.
!!LO:LB:g=original
=14	=14	=14	=14
4BB#X	[4A	8.f#XL	.
.	.	16g#Jk	.
4C#	4A] 4f#	8aL	.
.	.	8bnJ	.
4r	4r	4cc#	.
=15	=15	=15	=15
4r	4r	8bL	.
.	.	8aJ	.
4C# 4B	4e#X	4g#	.
4C# 4B	4e#	8aL	.
.	.	8g#J	.
=16	=16	=16	=16
4FF#	4f#	2.f#	.
4C# 4A	4c#	.	.
4C# 4A	4c#	.	.
*	*v	*v	*
=17	=17	=17
4AA	4r	.
4E 4c#	4a 4ee	f
4E 4d	4g# 4b	.
=18	=18	=18
4r	8.aL	.
.	16bJk	.
8c#L	2a 2cc#	.
8B	.	.
8A	.	.
8F#J	.	.
=19	=19	=19
4AA 4E	4r	.
4E 4c#	4a 4ee	.
4E 4d	4g# 4b	.
=20	=20	=20
4r	8.aL	.
.	16f#Jk	.
8c#L	2e	.
8B	.	.
8A	.	.
8F#J	.	.
!!LO:LB:g=original
=21	=21	=21
4AA 4E	4r	p
4E 4c#	4a 4ee	.
4E 4d	4g# 4b	.
=22	=22	=22
4r	8.aL	.
.	16bJk	.
12c#L	2a 2cc#	.
12d	.	.
12c#J	.	.
12BL	.	.
12A	.	.
12F#J	.	.
=23	=23	=23
4AA 4E	4r	.
4E 4c#	4a 4ee	.
4E 4d	4g# 4b	.
=24	=24	=24
4r	8.aL	.
.	16f#Jk	.
12c#L	2e	.
12d	.	.
12c#J	.	.
4E	.	.
=25	=25	=25
4EE	8bL	f
.	8g#	.
12dL	8f#	.
12e	.	.
.	8g#J	.
12dJ	.	.
4E	4e	.
=26	=26	=26
4AA	8cc#L	.
.	8a	.
12c#L	8g#	.
12d	.	.
.	8aJ	.
12c#J	.	.
4E	4f#	.
!!LO:LB:g=original
=27	=27	=27
4EE	8bL	.
.	8g#	.
12dL	8f#	.
12e	.	.
.	8g#J	.
12dJ	.	.
4E	4e	.
=28	=28	=28
4AA	8aL	.
.	8bJ	.
4E 4c#	2a 2cc#	.
4E 4c#	.	.
=29	=29	=29
4EE	8bL	pp
.	8g#	.
*^	*	*
4E	12dL	8f#	.
.	12e	.	.
.	.	8g#J	.
.	12dJ	.	.
*v	*v	*	*
*clefG2	*	*
4ee	4e	.
*clefF4	*	*
=30	=30	=30
4AA	8cc#L	.
.	8a	.
*^	*	*
4E	12c#L	8g#	.
.	12d	.	.
.	.	8aJ	.
.	12c#J	.	.
*v	*v	*	*
*clefG2	*	*
4ee	4f#	.
*clefF4	*	*
=31	=31	=31
4EE	8bL	.
.	8g#	.
*^	*	*
4E	12dL	8f#	.
.	12e	.	.
.	.	8g#J	.
.	12dJ	.	.
*v	*v	*	*
*clefG2	*	*
4ee	4e	.
*clefF4	*	*
=32	=32	=32
4AA	4.a	.
4E 4c#	.	.
.	8b	.
4r	8aL	<
.	8B#XJ	.
!!LO:LB:g=original
=33	=33	=33
*^	*^	*
8.C#L	4r	[2.c#	8c#L	.
.	.	.	8f#	.
16DJk	.	.	.	.
*	*	*	*^	*
4E	4Bn	.	4e#\X	8g#	.
.	.	.	.	8f##X	.
*v	*v	*	*	*	*
4C# 4B	.	4e#\	8g#	.
.	.	.	8aJ	.
*	*	*v	*v	*
=34	=34	=34	=34
4r	2.c#]	8.f#XL	.
.	.	16g#Jk	.
*	*	*^	*
4C# 4A	.	4f#\	8aL	.
.	.	.	8bJ	.
4C# 4A	.	4f#\	4cc#	.
*	*	*v	*v	*
=35	=35	=35	=35
8BBL	4r	[4dd	.
8FnJ 8d	.	.	.
4A 4a	4r	8ddL]	.
.	.	8cc#	.
4E 4B	4d 4e 4g#	8dd	.
.	.	8eeJ	.
=36	=36	=36	=36
*^	*	*	*
2.AA	4D#X	2.c#	8cc#L	.
.	.	.	8bJ	.
.	4E	.	2a	.
.	4e	.	.	.
*v	*v	*	*	*
=37	=37	=37	=37
8.DnL	2B 2f#	[4g#	.
16GG#Jk	.	.	.
4D	.	8g#L]	.
.	.	8f##X	.
4C#	4B 4e#X	8g#	.
.	.	8aJ	.
=38	=38	=38	=38
4BB#X	[4A	8.f#XL	.
.	.	16g#Jk	.
4C#	4A] 4f#	8aL	.
.	.	8bnJ	.
4r	4r	4cc#	.
!!LO:LB:g=original
=39	=39	=39	=39
4r	4r	8bL	.
.	.	8aJ	.
4C# 4B	4e#X	4g#	.
4C# 4B	4e#	8aL	.
.	.	8g#J	.
=40	=40	=40	=40
4FF#	4f#	2.f#	.
4C# 4A	4c#	.	.
4C# 4A	4c#	.	.
=41	=41	=41	=41
*^	*	*	*
8.C#L	4r	[2.c#	8c#L	pp
.	.	.	8f#	.
16DJk	.	.	.	.
*	*	*	*^	*
4C#	4B	.	4e#\X	8g#	.
.	.	.	.	8f##X	.
*v	*v	*	*	*	*
4C# 4B	.	4e#\	8g#	.
.	.	.	8aJ	.
*	*	*v	*v	*
=42	=42	=42	=42
4r	2.c#]	8.f#XL	.
.	.	16g#Jk	.
*	*	*^	*
4C# 4A	.	4f#\	8aL	.
.	.	.	8bJ	.
4C# 4A	.	4f#\	4cc#	.
*	*	*v	*v	*
=43	=43	=43	=43
8BBL	4r	[4dd	.
8FnJ 8d	.	.	.
4A 4a	4r	8ddL]	.
.	.	8cc#	.
4E 4B	4d 4e 4g#	8dd	.
.	.	8eeJ	.
=44	=44	=44	=44
*^	*	*	*
2.AA	4D#X	2.c#	8cc#L	.
.	.	.	8bJ	.
.	4E	.	2a	.
.	4e	.	.	.
*v	*v	*	*	*
=45	=45	=45	=45
8.DnL	2B 2f#	[4g#	.
16GG#Jk	.	.	.
4D	.	8g#L]	.
.	.	8f##X	.
4C#	4B 4e#X	8g#	.
.	.	8aJ	.
!!LO:LB:g=original
=46	=46	=46	=46
4BB#X	[4A	8.f#XL	.
.	.	16g#Jk	.
4C#	4A] 4f#	8aL	.
.	.	8bnJ	.
4r	4r	4cc#	.
=47	=47	=47	=47
4r	4r	8bL	.
.	.	8aJ	.
4C# 4B	4e#X	4g#	.
4C# 4B	4e#	8aL	.
.	.	8g#J	.
=48	=48	=48	=48
4FF#	4f#	2.f#	.
4C# 4A	4c#	.	.
4C# 4A	4c#	.	.
*	*v	*v	*
*kcancel	*kcancel	*
=49||	=49||	=49||
*k[f#c#]	*k[f#c#]	*
4DD 4AA	4r	.
4G 4e	2a	ff
4F# 4d	.	.
=50	=50	=50
8qD	.	.
4B 4g	4a	.
4A 4f#	2a	.
4G 4e	.	.
=51	=51	=51
*^	*	*
2.D	4F# 4d	4dd	.
.	.	8qee	.
.	4A 4f#	8ddL	.
.	.	8cc#	.
.	4A 4f#	8dd	.
.	.	8eeJ	.
*v	*v	*	*
=52	=52	=52
4AA	8cc#L	.
.	8bJ	.
4A 4e	2a	.
[4AA	.	.
=53	=53	=53
4DD 4AA]	4r	.
4G 4e	2a	.
4F# 4d	.	.
!!LO:LB:g=original
=54	=54	=54
8qD	.	.
4B 4g	4a	.
4A 4f#	2a	.
4G 4e	.	.
=55	=55	=55
*^	*	*
4D	4F# 4d	4dd	.
.	.	8qcc#	.
2E 2d	4g#X	8bL	.
.	.	8a	.
.	[4e	8b	.
.	.	8cc#J	.
=56	=56	=56	=56
4A 4c#	4e]	2.a	.
*v	*v	*	*
4A	.	.
[4AA	.	.
=57	=57	=57
4DD 4AA]	4r	.
4G 4e	2a	p
4F# 4d	.	.
=58	=58	=58
8qD	.	.
4B 4g	4a	.
4A 4f#	2a	.
4G 4e	.	.
=59	=59	=59
*^	*	*
2.D	4F# 4d	4dd	.
.	.	8qee	.
.	4A 4f#	8ddL	.
.	.	8cc#	.
.	4A 4f#	8dd	.
.	.	8eeJ	.
*v	*v	*	*
=60	=60	=60
4AA	8cc#L	.
.	8bJ	.
4A 4e	2a	.
[4AA	.	.
=61	=61	=61
4DD 4AA]	4r	.
4G 4e	2a	.
4F# 4d	.	.
!!LO:LB:g=original
=62	=62	=62
8qD	.	.
4B 4g	4a	.
4A 4f#	2a	.
4G 4e	.	.
=63	=63	=63
*^	*	*
4D	4F# 4d	4dd	.
.	.	8qff#	.
*clefG2	*clefG2	*	*
2A 2g	4cc#	8eeL	.
.	.	8dd	.
.	[4a	8cc# 8ee	.
.	.	8ff#J	.
=64	=64	=64	=64
4d 4f#	4a]	4.dd	.
*v	*v	*	*
*clefF4	*	*
4D	.	.
.	8b	.
4r	8aL	.
.	8B#XJ	.
=65||	=65||	=65||
*k[f#c#g#]	*k[f#c#g#]	*
*^	*^	*
8.C#L	4r	[2.c#	8c#L	f
.	.	.	8f#	.
16DJk	.	.	.	.
*	*	*	*^	*
4C#	4Bn	.	4e#\X	8g#	.
.	.	.	.	8f##X	.
*v	*v	*	*	*	*
4C# 4B	.	4e#\	8g#	.
.	.	.	8aJ	.
*	*	*v	*v	*
=66	=66	=66	=66
4r	2.c#]	8.f#XL	.
.	.	16g#Jk	.
*	*	*^	*
4C# 4A	.	4f#\	8aL	.
.	.	.	8bJ	.
4C# 4A	.	4f#\	4cc#	.
*	*	*v	*v	*
=67	=67	=67	=67
8BBL	4r	[4dd	.
8FnJ 8d	.	.	.
4A 4a	4r	8ddL]	.
.	.	8cc#	.
4E 4B	4d 4e 4g#	8dd	.
.	.	8eeJ	.
!!LO:LB:g=original
=68	=68	=68	=68
*^	*	*	*
2.AA	4D#X	2.c#	8cc#L	.
.	.	.	8bJ	.
.	4E	.	2a	.
.	4e	.	.	.
*v	*v	*	*	*
=69	=69	=69	=69
8.DnL	2B 2f#	[4g#	.
16GG#Jk	.	.	.
4D	.	8g#L]	.
.	.	8f##X	.
4C#	4B 4e#X	8g#	.
.	.	8aJ	.
=70	=70	=70	=70
4BB#X	[4A	8.f#XL	.
.	.	16g#Jk	.
4C#	4A] 4f#	8aL	.
.	.	8bnJ	.
4r	4r	4cc#	.
=71	=71	=71	=71
4r	4r	8bL	.
.	.	8aJ	.
4C# 4B	4e#X	4g#	.
4C# 4B	4e#	8aL	.
.	.	8g#J	.
=72	=72	=72	=72
4FF#	4f#	2.f#	.
4C# 4A	4c#	.	.
4C# 4A	4c#	.	.
=73	=73	=73	=73
*^	*	*	*
8.C#L	4r	[2.c#	8c#L	pp
.	.	.	8f#	.
16DJk	.	.	.	.
*	*	*	*^	*
4C#	4B	.	4e#\X	8g#	.
.	.	.	.	8f##X	.
*v	*v	*	*	*	*
4C# 4B	.	4e#\	8g#	.
.	.	.	8aJ	.
*	*	*v	*v	*
=74	=74	=74	=74
4r	2.c#]	8.f#XL	.
.	.	16g#Jk	.
*	*	*^	*
4C# 4A	.	4f#\	8aL	.
.	.	.	8bJ	.
4C# 4A	.	4f#\	4cc#	.
*	*	*v	*v	*
!!LO:LB:g=original
=75	=75	=75	=75
8BBL	4r	[4dd	.
8FnJ 8d	.	.	.
4A 4a	4r	8ddL]	.
.	.	8cc#	.
4E 4B	4d 4e 4g#	8dd	.
.	.	8eeJ	.
=76	=76	=76	=76
*^	*	*	*
2.AA	4D#X	2.c#	8cc#L	.
.	.	.	8bJ	.
.	4E	.	2a	.
.	4e	.	.	.
*v	*v	*	*	*
=77	=77	=77	=77
8.DnL	2B 2f#	[4g#	.
16GG#Jk	.	.	.
4D	.	8g#L]	.
.	.	8f##X	.
4C#	4B 4e#X	8g#	.
.	.	8aJ	.
=78	=78	=78	=78
4BB#X	[4A	8.f#XL	.
.	.	16g#Jk	.
4C#	4A] 4f#	8aL	.
.	.	8bnJ	.
4r	4r	4cc#	.
*	*v	*v	*
=79	=79	=79
2.r	2.r	.
=80	=80	=80
*	*^	*
4r	4r	8bL	.
.	.	8aJ	.
4C# 4B	4e#X	4g#	.
4C# 4B	4e#	8aL	.
.	.	8g#J	.
*	*v	*v	*
=81	=81	=81
4FF#	4f#	.
4C# 4A	4f# 4cc# 4ff#	.
4r	4r	.
==	==	==
*-	*-	*-
!!!system-decoration: {(*)}
!!!filter: flipper -a
!!!ENC: Bryan Jacob Bell
!!!END: November 2021 to April 2022
!!!PED: Günter Philipp
!!!PTL: Ausgewählte Klavierwerke (Edition Peters)
!!!URL-pdf: https://github.com/bel28kent/Mysterium/blob/main/reference_editions/op03.pdf
